icons/run-fastoff.svg

<?xml version="1.0" encoding="UTF-8" standalone="no"?>
<!-- Created with Inkscape (http://www.inkscape.org/) -->

<svg
   xmlns:svg="http://www.w3.org/2000/svg"
   xmlns="http://www.w3.org/2000/svg"
   version="1.0"
   width="45"
   height="45"
   id="svg2">
  <defs
     id="defs5" />
  <g
     transform="translate(6.0193572e-8,-1.9999998)"
     id="g3287">
    <path
       d="m 37.158177,18.217157 c 0,7.129359 -4.73972,12.908847 -10.586461,12.908847 -5.846741,0 -10.586461,-5.779488 -10.586461,-12.908847 0,-7.129359 4.73972,-12.908847 10.586461,-12.908847 5.846741,0 10.586461,5.779488 10.586461,12.908847 l 0,0 z"
       transform="matrix(0.9002849,0,0,0.6378505,-7.1526774,12.961276)"
       id="path3173"
       style="fill:#ffffff;fill-opacity:1;stroke:none" />
    <path
       d="m 37.158177,18.217157 c 0,7.129359 -4.73972,12.908847 -10.586461,12.908847 -5.846741,0 -10.586461,-5.779488 -10.586461,-12.908847 0,-7.129359 4.73972,-12.908847 10.586461,-12.908847 5.846741,0 10.586461,5.779488 10.586461,12.908847 l 0,0 z"
       transform="matrix(0.34904,-0.8298699,0.4328947,0.1820738,8.5363479,48.352162)"
       id="path3177"
       style="fill:#ffffff;fill-opacity:1;stroke:none" />
    <path
       d="m 37.158177,18.217157 c 0,7.129359 -4.73972,12.908847 -10.586461,12.908847 -5.846741,0 -10.586461,-5.779488 -10.586461,-12.908847 0,-7.129359 4.73972,-12.908847 10.586461,-12.908847 5.846741,0 10.586461,5.779488 10.586461,12.908847 l 0,0 z"
       transform="matrix(0.5612942,0.3544048,-0.1085241,0.1718767,9.8942224,-2.0522731)"
       id="path3179"
       style="fill:#ffffff;fill-opacity:1;stroke:none" />
    <path
       d="m 9.2958401,27.300367 c 0,0 0.6438297,-3.994201 1.6400319,-5.238518 0.833257,-1.040794 2.516695,-1.85759 3.762426,-2.031262 0.9968,-0.138967 2.383402,0.2462 3.280063,0.74836 1.042545,0.583861 2.271254,1.791474 2.894173,2.88653 0.98159,1.725581 1.256974,4.552031 1.736504,6.52142 0.380364,1.562127 0.284039,3.94213 1.157669,5.238518 0.721744,1.071004 2.287173,2.00041 3.473008,2.245082 1.78687,0.368683 4.166897,-1.188245 5.981292,-1.069088 0.84132,0.05525 2.27015,0.05272 2.701229,0.85527 0.272959,0.50817 -0.01689,1.497122 -0.38589,1.924349 -1.388344,1.60742 -4.484134,1.551863 -6.463654,1.924357 -1.54502,0.290727 -3.77056,1.115533 -5.209513,0.427635 -2.191386,-1.047611 -3.11186,-5.248556 -5.016567,-6.842148 C 18.494794,34.59652 17.932313,34.319138 17.495998,34.249421 16.284393,34.055824 14.659189,34.94909 13.444155,34.783964 12.553171,34.662876 11.3895,34.166119 10.646456,33.607971 9.4764934,32.729136 8.0161145,31.200596 7.4628632,29.759263 6.9180297,28.339853 7.0795774,26.166629 7.1734442,24.627654 c 0.04976,-0.815832 0.186147,-1.923803 0.4823635,-2.672713 0.4740893,-1.198617 1.3821263,-2.725983 2.3153404,-3.527981 1.3038139,-1.120492 3.4728879,-2.04627 5.1130389,-2.245079 1.631802,-0.197799 3.828032,0.447353 5.402457,0.962176 1.516337,0.49583 3.246091,2.236482 4.823622,2.351988 0.932208,0.06826 2.407938,-0.152939 2.990646,-0.962177 0.30741,-0.426916 0.343158,-1.344606 0.09647,-1.817445 -0.550654,-1.055475 -2.224944,-1.472146 -3.280064,-1.817445 -1.00539,-0.329024 -2.45155,-0.166363 -3.473007,-0.427634 -0.838456,-0.214462 -1.933408,-0.638591 -2.701229,-1.069086 -1.24629,-0.698755 -2.959159,-1.702648 -3.858898,-2.886529 -0.817776,-1.0760346 -2.317397,-3.0254485 -1.736505,-4.2763406 0.06753,-0.1454133 0.336585,-0.081478 0.482363,-0.1069088 0.748264,-0.1305312 2.147702,0.4174844 2.508284,-0.3207253 0.338874,-0.6937639 -1.483172,-1.7166452 -1.061197,-2.351988 0.851763,-1.2824449 3.329342,0.4862662 4.72715,0.8552682 1.121926,0.2961731 2.62592,0.7305046 3.665953,1.2829032 1.693816,0.8996449 3.826771,2.4399257 5.209512,3.8487057 1.197868,1.2204256 1.98772,3.7643616 3.376536,4.7039756 0.62978,0.426082 1.725087,0.235405 2.411811,0.534543 0.411153,0.179097 0.884057,0.587915 1.254142,0.855267 0.854101,0.61701 2.099953,1.314356 2.797701,2.13817 0.577461,0.681796 0,0.106909 1.447086,2.672714 1.447087,2.565804 1.501279,0.32572 1.832977,2.245079 0,0 -0.32328,1.512069 -0.675307,2.031262 -0.41031,0.605152 -1.195498,1.224871 -1.832977,1.496719 -0.271455,0.11576 -0.68249,0.18483 -0.964724,0.106908 -0.405023,-0.111822 -0.753667,-0.738998 -1.157669,-0.855267 -0.70255,-0.202189 -1.686925,0.255337 -2.411811,0.213817 -0.793655,-0.04546 -1.927833,-0.07316 -2.604757,-0.534543 -0.650834,-0.443601 -1.191753,-1.493431 -1.543559,-2.245079 -0.26551,-0.567275 -0.0089,-2.128616 -0.578834,-2.031262 -0.0286,0.0049 0,0.106909 0,0.106909 m 2.604756,4.383249 c 0,0 -0.67407,3.00661 -0.964725,4.294669 -0.259371,1.14942 -0.38119,2.775651 -0.868252,3.830379 -0.654999,1.418394 -3.087119,4.062526 -3.087119,4.062526 m -0.578834,-7.37669 c 0,0 -0.762223,2.02329 -1.254142,2.779621 -0.526506,0.80951 -1.777805,1.430082 -2.122394,2.351988 -0.01108,0.02963 0,0.106908 0,0.106908 m -3.858898,1.710538 c 0,0 -2.498343,0.09087 -3.56948,0.106905 -0.694537,0.01041 -1.848045,-0.569505 -2.31534,0 -0.410734,0.500573 -0.129138,1.670316 0.192948,2.245079 0.377101,0.672936 1.341866,1.159966 2.025922,1.389809 0.803679,0.270031 1.960108,0.174507 2.797698,0.106913 0.968172,-0.07813 3.18359,-0.641452 3.18359,-0.641452 M 7.3663896,23.237843 c 0,0 -2.1337626,-2.804738 -3.2800638,-2.458896 -0.6495254,0.195963 -0.8281117,1.514613 -0.9647234,2.245079 -0.1645596,0.879906 -0.1889559,2.152344 0.096474,2.993439 0.3548095,1.045538 1.2844064,2.265735 2.1223913,2.88653 0.5024007,0.372186 1.3315344,0.544203 1.9294505,0.641451 0.028634,0.0047 0.096471,0 0.096471,0 M 29.651526,14.04371 c 0,0 -3.058348,-4.1388306 -4.72715,-5.4523336 C 23.678488,7.6107444 21.770009,6.6768097 20.293698,6.2393884 19.086245,5.8816272 16.145385,5.8117543 16.145385,5.8117543 M 35.343402,20.030587 c 0.276872,0.284129 1.079502,0.263788 1.254141,-0.106908 0.264175,-0.56075 -0.52371,-1.415829 -0.964724,-1.817446 -0.473808,-0.431478 -1.46214,-1.188454 -1.929449,-0.748359 -0.380706,0.358535 -0.198367,1.697687 0.289416,1.817445 0.344916,0.08468 0.327116,-1.002886 0.675308,-1.069086 0.245381,-0.04665 0.561385,0.289224 0.675308,0.534543 0.172161,0.370733 -0.276058,1.106519 0,1.389811 z m -0.09647,-0.106908 c 0,0 0,0 0,0 z"
       id="path2384"
       style="fill:#ffffff;fill-opacity:1;fill-rule:evenodd;stroke:#000000;stroke-width:1px;stroke-linecap:butt;stroke-linejoin:miter;stroke-opacity:1" />
  </g>
</svg>

<?xml version="1.0" encoding="UTF-8" standalone="no"?>
<!-- Created with Inkscape (http://www.inkscape.org/) -->
<svg
   xmlns:svg="http://www.w3.org/2000/svg"
   xmlns="http://www.w3.org/2000/svg"
   version="1.0"
   width="45"
   height="45"
   id="svg2">
  <defs
     id="defs5" />
  <path
     d="M 27.849263,20.597427 C 27.851349,29.203268 22.048546,36.18101 14.889706,36.18101 C 7.7308648,36.18101 1.9280624,29.203268 1.9301481,20.597427 C 1.9280624,11.991586 7.7308648,5.0138442 14.889706,5.0138442 C 22.048546,5.0138442 27.851349,11.991586 27.849263,20.597427 L 27.849263,20.597427 z"
     transform="matrix(1.6011349,0,0,1.3319174,-1.3404274,-4.9340719)"
     id="path2401"
     style="opacity:1;fill:#808080;fill-opacity:1;stroke:#808080;stroke-width:2.39670968;stroke-linecap:round;stroke-miterlimit:4;stroke-dasharray:none;stroke-opacity:1" />
  <g
     transform="translate(6.0193572e-8,-1.9999998)"
     id="g3287">
    <path
       d="M 37.158177,18.217157 C 37.158177,25.346516 32.418457,31.126004 26.571716,31.126004 C 20.724975,31.126004 15.985255,25.346516 15.985255,18.217157 C 15.985255,11.087798 20.724975,5.30831 26.571716,5.30831 C 32.418457,5.30831 37.158177,11.087798 37.158177,18.217157 L 37.158177,18.217157 z"
       transform="matrix(0.9002849,0,0,0.6378505,-7.1526774,12.961276)"
       id="path3173"
       style="opacity:1;fill:#ffffff;fill-opacity:1;stroke:none;stroke-width:3.5;stroke-linecap:round;stroke-miterlimit:4;stroke-dasharray:none;stroke-opacity:1" />
    <path
       d="M 37.158177,18.217157 C 37.158177,25.346516 32.418457,31.126004 26.571716,31.126004 C 20.724975,31.126004 15.985255,25.346516 15.985255,18.217157 C 15.985255,11.087798 20.724975,5.30831 26.571716,5.30831 C 32.418457,5.30831 37.158177,11.087798 37.158177,18.217157 L 37.158177,18.217157 z"
       transform="matrix(0.34904,-0.8298699,0.4328947,0.1820738,8.5363479,48.352162)"
       id="path3177"
       style="opacity:1;fill:#ffffff;fill-opacity:1;stroke:none;stroke-width:3.5;stroke-linecap:round;stroke-miterlimit:4;stroke-dasharray:none;stroke-opacity:1" />
    <path
       d="M 37.158177,18.217157 C 37.158177,25.346516 32.418457,31.126004 26.571716,31.126004 C 20.724975,31.126004 15.985255,25.346516 15.985255,18.217157 C 15.985255,11.087798 20.724975,5.30831 26.571716,5.30831 C 32.418457,5.30831 37.158177,11.087798 37.158177,18.217157 L 37.158177,18.217157 z"
       transform="matrix(0.5612942,0.3544048,-0.1085241,0.1718767,9.8942224,-2.0522731)"
       id="path3179"
       style="opacity:1;fill:#ffffff;fill-opacity:1;stroke:none;stroke-width:3.5;stroke-linecap:round;stroke-miterlimit:4;stroke-dasharray:none;stroke-opacity:1" />
    <path
       d="M 9.2958401,27.300367 C 9.2958401,27.300367 9.9396698,23.306166 10.935872,22.061849 C 11.769129,21.021055 13.452567,20.204259 14.698298,20.030587 C 15.695098,19.89162 17.0817,20.276787 17.978361,20.778947 C 19.020906,21.362808 20.249615,22.570421 20.872534,23.665477 C 21.854124,25.391058 22.129508,28.217508 22.609038,30.186897 C 22.989402,31.749024 22.893077,34.129027 23.766707,35.425415 C 24.488451,36.496419 26.05388,37.425825 27.239715,37.670497 C 29.026585,38.03918 31.406612,36.482252 33.221007,36.601409 C 34.062327,36.656661 35.491157,36.654128 35.922236,37.456679 C 36.195195,37.964849 35.905348,38.953801 35.536346,39.381028 C 34.148002,40.988448 31.052212,40.932891 29.072692,41.305385 C 27.527672,41.596112 25.302132,42.420918 23.863179,41.73302 C 21.671793,40.685409 20.751319,36.484464 18.846612,34.890872 C 18.494794,34.59652 17.932313,34.319138 17.495998,34.249421 C 16.284393,34.055824 14.659189,34.94909 13.444155,34.783964 C 12.553171,34.662876 11.3895,34.166119 10.646456,33.607971 C 9.4764934,32.729136 8.0161145,31.200596 7.4628632,29.759263 C 6.9180297,28.339853 7.0795774,26.166629 7.1734442,24.627654 C 7.2232038,23.811822 7.3595912,22.703851 7.6558077,21.954941 C 8.129897,20.756324 9.037934,19.228958 9.9711481,18.42696 C 11.274962,17.306468 13.444036,16.38069 15.084187,16.181881 C 16.715989,15.984082 18.912219,16.629234 20.486644,17.144057 C 22.002981,17.639887 23.732735,19.380539 25.310266,19.496045 C 26.242474,19.564301 27.718204,19.343106 28.300912,18.533868 C 28.608322,18.106952 28.64407,17.189262 28.397385,16.716423 C 27.846731,15.660948 26.172441,15.244277 25.117321,14.898978 C 24.111931,14.569954 22.665771,14.732615 21.644314,14.471344 C 20.805858,14.256882 19.710906,13.832753 18.943085,13.402258 C 17.696795,12.703503 15.983926,11.69961 15.084187,10.515729 C 14.266411,9.4396944 12.76679,7.4902805 13.347682,6.2393884 C 13.41521,6.0939751 13.684267,6.1579103 13.830045,6.1324796 C 14.578309,6.0019484 15.977747,6.549964 16.338329,5.8117543 C 16.677203,5.1179904 14.855157,4.0951091 15.277132,3.4597663 C 16.128895,2.1773214 18.606474,3.9460325 20.004282,4.3150345 C 21.126208,4.6112076 22.630202,5.0455391 23.670235,5.5979377 C 25.364051,6.4975826 27.497006,8.0378634 28.879747,9.4466434 C 30.077615,10.667069 30.867467,13.211005 32.256283,14.150619 C 32.886063,14.576701 33.98137,14.386024 34.668094,14.685162 C 35.079247,14.864259 35.552151,15.273077 35.922236,15.540429 C 36.776337,16.157439 38.022189,16.854785 38.719937,17.678599 C 39.297398,18.360395 38.719937,17.785508 40.167023,20.351313 C 41.61411,22.917117 41.668302,20.677033 42,22.596392 C 42,22.596392 41.67672,24.108461 41.324693,24.627654 C 40.914383,25.232806 40.129195,25.852525 39.491716,26.124373 C 39.220261,26.240133 38.809226,26.309203 38.526992,26.231281 C 38.121969,26.119459 37.773325,25.492283 37.369323,25.376014 C 36.666773,25.173825 35.682398,25.631351 34.957512,25.589831 C 34.163857,25.544373 33.029679,25.516672 32.352755,25.055288 C 31.701921,24.611687 31.161002,23.561857 30.809196,22.810209 C 30.543686,22.242934 30.800291,20.681593 30.230362,20.778947 C 30.201757,20.783833 30.230362,20.885856 30.230362,20.885856 M 32.835118,25.269105 C 32.835118,25.269105 32.161048,28.275715 31.870393,29.563774 C 31.611022,30.713194 31.489203,32.339425 31.002141,33.394153 C 30.347142,34.812547 27.915022,37.456679 27.915022,37.456679 M 27.336188,30.079989 C 27.336188,30.079989 26.573965,32.103279 26.082046,32.85961 C 25.55554,33.66912 24.304241,34.289692 23.959652,35.211598 C 23.948576,35.241229 23.959652,35.318506 23.959652,35.318506 M 20.100754,37.029044 C 20.100754,37.029044 17.602411,37.119914 16.531274,37.135949 C 15.836737,37.146354 14.683229,36.566444 14.215934,37.135949 C 13.8052,37.636522 14.086796,38.806265 14.408882,39.381028 C 14.785983,40.053964 15.750748,40.540994 16.434804,40.770837 C 17.238483,41.040868 18.394912,40.945344 19.232502,40.87775 C 20.200674,40.799617 22.416092,40.236298 22.416092,40.236298 M 7.3663896,23.237843 C 7.3663896,23.237843 5.232627,20.433105 4.0863258,20.778947 C 3.4368004,20.97491 3.2582141,22.29356 3.1216024,23.024026 C 2.9570428,23.903932 2.9326465,25.17637 3.2180769,26.017465 C 3.5728864,27.063003 4.5024833,28.2832 5.3404682,28.903995 C 5.8428689,29.276181 6.6720026,29.448198 7.2699187,29.545446 C 7.2985527,29.550103 7.3663896,29.545446 7.3663896,29.545446 M 29.651526,14.04371 C 29.651526,14.04371 26.593178,9.9048794 24.924376,8.5913764 C 23.678488,7.6107444 21.770009,6.6768097 20.293698,6.2393884 C 19.086245,5.8816272 16.145385,5.8117543 16.145385,5.8117543 M 35.343402,20.030587 C 35.620274,20.314716 36.422904,20.294375 36.597543,19.923679 C 36.861718,19.362929 36.073833,18.50785 35.632819,18.106233 C 35.159011,17.674755 34.170679,16.917779 33.70337,17.357874 C 33.322664,17.716409 33.505003,19.055561 33.992786,19.175319 C 34.337702,19.260001 34.319902,18.172433 34.668094,18.106233 C 34.913475,18.059581 35.229479,18.395457 35.343402,18.640776 C 35.515563,19.011509 35.067344,19.747295 35.343402,20.030587 z M 35.246929,19.923679 C 35.246929,19.923679 35.246929,19.923679 35.246929,19.923679 z"
       id="path2384"
       style="fill:#ffffff;fill-opacity:1;fill-rule:evenodd;stroke:#000000;stroke-width:1px;stroke-linecap:butt;stroke-linejoin:miter;stroke-opacity:1" />
  </g>
</svg>
